svgs/duotone/message-lines.svg

<svg xmlns="http://www.w3.org/2000/svg" viewBox="0 0 512 512"><!--! Font Awesome Pro 6.6.0 by @fontawesome - https://fontawesome.com License - https://fontawesome.com/license (Commercial License) Copyright 2024 Fonticons, Inc. --><defs><style>.fa-secondary{opacity:.4}</style></defs><path class="fa-secondary" d="M0 64C0 28.7 28.7 0 64 0L448 0c35.3 0 64 28.7 64 64l0 288c0 35.3-28.7 64-64 64l-138.7 0L185.6 508.8c-4.8 3.6-11.3 4.2-16.8 1.5s-8.8-8.2-8.8-14.3l0-80-96 0c-35.3 0-64-28.7-64-64L0 64zM128 168c0 13.3 10.7 24 24 24l208 0c13.3 0 24-10.7 24-24s-10.7-24-24-24l-208 0c-13.3 0-24 10.7-24 24zm0 96c0 13.3 10.7 24 24 24l112 0c13.3 0 24-10.7 24-24s-10.7-24-24-24l-112 0c-13.3 0-24 10.7-24 24z"/><path class="fa-primary" d="M128 168c0-13.3 10.7-24 24-24l208 0c13.3 0 24 10.7 24 24s-10.7 24-24 24l-208 0c-13.3 0-24-10.7-24-24zm0 96c0-13.3 10.7-24 24-24l112 0c13.3 0 24 10.7 24 24s-10.7 24-24 24l-112 0c-13.3 0-24-10.7-24-24z"/></svg>

<svg xmlns="http://www.w3.org/2000/svg" viewBox="0 0 512 512"><!--! Font Awesome Pro 6.4.0 by @fontawesome - https://fontawesome.com License - https://fontawesome.com/license (Commercial License) Copyright 2023 Fonticons, Inc. --><defs><style>.fa-secondary{opacity:.4}</style></defs><path class="fa-primary" d="M128 168c0-13.3 10.7-24 24-24H360c13.3 0 24 10.7 24 24s-10.7 24-24 24H152c-13.3 0-24-10.7-24-24zm0 96c0-13.3 10.7-24 24-24H264c13.3 0 24 10.7 24 24s-10.7 24-24 24H152c-13.3 0-24-10.7-24-24z"/><path class="fa-secondary" d="M0 64C0 28.7 28.7 0 64 0H448c35.3 0 64 28.7 64 64V352c0 35.3-28.7 64-64 64H309.3L185.6 508.8c-4.8 3.6-11.3 4.2-16.8 1.5s-8.8-8.2-8.8-14.3V416H64c-35.3 0-64-28.7-64-64V64zm152 80c-13.3 0-24 10.7-24 24s10.7 24 24 24H360c13.3 0 24-10.7 24-24s-10.7-24-24-24H152zm0 96c-13.3 0-24 10.7-24 24s10.7 24 24 24H264c13.3 0 24-10.7 24-24s-10.7-24-24-24H152z"/></svg>
